images/marks/cm-mark.svg

<svg xmlns="http://www.w3.org/2000/svg" width="52" height="37" viewBox="0 0 52 37">
  <g fill="none" fill-rule="evenodd">
    <path fill="#1B86F2" d="M45.7 16.9V16c0-8.5-7.1-16-15.6-16-6.2 0-11.3 4.1-13.8 9.3-1.2-.9-2.7-1.5-4.4-1.5C8 7.9 4.8 11 4.8 15c0 .7.1 1.5.3 2.1C2 18.9 0 22.3 0 26.1 0 31.8 4.3 36.9 10 37h32.1c5.7 0 9.9-5 9.9-10.6 0-4.3-2.6-7.9-6.3-9.5z"/>
    <path fill="#FFF" d="M35.5 20.9v1.2c0 .3-.2.5-.5.6l-2.7.3c-.2.7-.4 1.3-.8 1.9l1.6 2.1c.2.2.2.6-.1.8l-.8.8c-.1.1-.3.2-.4.2-.1 0-.3 0-.4-.1l-2.1-1.6c-.6.3-1.2.6-1.9.8l-.4 2.6c0 .3-.3.5-.6.5h-1.2c-.3 0-.5-.2-.6-.5l-.4-2.6c-.7-.2-1.3-.4-1.9-.8l-2.1 1.6c-.1.1-.2.1-.4.1s-.3-.1-.4-.2l-.8-.8c-.2-.2-.2-.5-.1-.8l1.6-2.1c-.3-.6-.6-1.2-.8-1.9l-2.3-.3c-.3 0-.5-.3-.5-.6v-1.2c0-.3.2-.5.5-.6l2.6-.4c.2-.7.4-1.3.8-1.9l-1.6-2c-.2-.2-.2-.6.1-.8l.8-.8c.1-.1.3-.2.4-.2.1 0 .3 0 .4.1l2.1 1.6c.6-.3 1.2-.6 1.9-.8l.4-2.6c0-.3.3-.5.6-.5h1.2c.3 0 .5.2.6.5l.4 2.6c.7.2 1.3.4 1.9.8l2.1-1.6c.1-.1.2-.1.4-.1s.3.1.4.2l.8.8c.2.2.2.5.1.8l-1.6 2.1c.3.6.6 1.2.8 1.9l2.6.4c.1 0 .3.2.3.5zM26 25.1c2 0 3.6-1.6 3.6-3.6S28 17.9 26 17.9s-3.6 1.6-3.6 3.6 1.6 3.6 3.6 3.6z"/>
  </g>
</svg>

<?xml version="1.0" encoding="UTF-8" standalone="no"?>
<svg width="52px" height="37px" viewBox="0 0 52 37" version="1.1" xmlns="http://www.w3.org/2000/svg" xmlns:xlink="http://www.w3.org/1999/xlink" xmlns:sketch="http://www.bohemiancoding.com/sketch/ns">
    <!-- Generator: Sketch 3.3.2 (12043) - http://www.bohemiancoding.com/sketch -->
    <title>product-icon-cm</title>
    <desc>Created with Sketch.</desc>
    <defs></defs>
    <g id="Page-1" stroke="none" stroke-width="1" fill="none" fill-rule="evenodd" sketch:type="MSPage">
        <g id="Application-Branding-Guide" sketch:type="MSArtboardGroup" transform="translate(-20.000000, -900.000000)">
            <g id="product-icon-cm" sketch:type="MSLayerGroup" transform="translate(20.000000, 900.000000)">
                <path d="M45.7,16.9 L45.7,16 C45.7,7.5 38.6,0 30.1,0 C23.9,0 18.8,4.1 16.3,9.3 C15.1,8.4 13.6,7.8 11.9,7.8 C8,7.9 4.8,11 4.8,15 C4.8,15.7 4.9,16.5 5.1,17.1 C2,18.9 0,22.3 0,26.1 C0,31.8 4.3,36.9 10,37 L42.1,37 C47.8,37 52,32 52,26.4 C52,22.1 49.4,18.5 45.7,16.9 L45.7,16.9 Z" id="Shape" fill="#1B86F2" sketch:type="MSShapeGroup"></path>
                <path d="M35.5,20.9 L35.5,22.1 C35.5,22.4 35.3,22.6 35,22.7 L32.3,23 C32.1,23.7 31.9,24.3 31.5,24.9 L33.1,27 C33.3,27.2 33.3,27.6 33,27.8 L32.2,28.6 C32.1,28.7 31.9,28.8 31.8,28.8 C31.7,28.8 31.5,28.8 31.4,28.7 L29.3,27.1 C28.7,27.4 28.1,27.7 27.4,27.9 L27,30.5 C27,30.8 26.7,31 26.4,31 L25.2,31 C24.9,31 24.7,30.8 24.6,30.5 L24.2,27.9 C23.5,27.7 22.9,27.5 22.3,27.1 L20.2,28.7 C20.1,28.8 20,28.8 19.8,28.8 C19.6,28.8 19.5,28.7 19.4,28.6 L18.6,27.8 C18.4,27.6 18.4,27.3 18.5,27 L20.1,24.9 C19.8,24.3 19.5,23.7 19.3,23 L17,22.7 C16.7,22.7 16.5,22.4 16.5,22.1 L16.5,20.9 C16.5,20.6 16.7,20.4 17,20.3 L19.6,19.9 C19.8,19.2 20,18.6 20.4,18 L18.8,16 C18.6,15.8 18.6,15.4 18.9,15.2 L19.7,14.4 C19.8,14.3 20,14.2 20.1,14.2 C20.2,14.2 20.4,14.2 20.5,14.3 L22.6,15.9 C23.2,15.6 23.8,15.3 24.5,15.1 L24.9,12.5 C24.9,12.2 25.2,12 25.5,12 L26.7,12 C27,12 27.2,12.2 27.3,12.5 L27.7,15.1 C28.4,15.3 29,15.5 29.6,15.9 L31.7,14.3 C31.8,14.2 31.9,14.2 32.1,14.2 C32.3,14.2 32.4,14.3 32.5,14.4 L33.3,15.2 C33.5,15.4 33.5,15.7 33.4,16 L31.8,18.1 C32.1,18.7 32.4,19.3 32.6,20 L35.2,20.4 C35.3,20.4 35.5,20.6 35.5,20.9 L35.5,20.9 Z M26,25.1 C28,25.1 29.6,23.5 29.6,21.5 C29.6,19.5 28,17.9 26,17.9 C24,17.9 22.4,19.5 22.4,21.5 C22.4,23.5 24,25.1 26,25.1 L26,25.1 Z" id="Shape" fill="#FFFFFF" sketch:type="MSShapeGroup"></path>
            </g>
        </g>
    </g>
</svg>
